tools/download-figma-icons/icons/outlined-large/home.svg

<svg width="64" height="64" viewBox="0 0 64 64" fill="none" xmlns="http://www.w3.org/2000/svg">
<path fill-rule="evenodd" clip-rule="evenodd" d="M32.884 10.2887L61 30.8298V24.5448L31.999 3.35675L3 24.5448V30.8288L31.114 10.2887C31.378 10.0968 31.688 9.99975 31.999 9.99975C32.31 9.99975 32.62 10.0968 32.884 10.2887ZM29.5 60.9998H55.5V30.5257L31.999 13.3567L8.5 30.5257V60.9998H13.5V40.4997C13.5 39.6717 14.172 38.9997 15 38.9997H28C28.828 38.9997 29.5 39.6717 29.5 40.4997V60.9998ZM25 48.9997H26.5V41.9997H16.5V60.9997H26.5V51.9997H25C24.172 51.9997 23.5 51.3277 23.5 50.4997C23.5 49.6717 24.172 48.9997 25 48.9997ZM50.5 5.99975H46.5V10.2358L50.5 13.1588V5.99975ZM53.5 15.3507L63.385 22.5718C63.771 22.8538 64 23.3047 64 23.7827V33.7827C64 34.3477 63.683 34.8647 63.18 35.1208C62.676 35.3748 62.071 35.3278 61.615 34.9938L58.5 32.7188V62.4997C58.5 63.3277 57.828 63.9997 57 63.9997H28H15H7C6.172 63.9997 5.5 63.3277 5.5 62.4997V32.7178L2.385 34.9938C2.123 35.1848 1.812 35.2827 1.5 35.2827C1.268 35.2827 1.035 35.2288 0.82 35.1208C0.317 34.8647 0 34.3477 0 33.7827V23.7827C0 23.3047 0.229 22.8538 0.615 22.5718L31.114 0.28875C31.642 -0.09625 32.356 -0.09625 32.884 0.28875L43.5 8.04475V4.49975C43.5 3.67175 44.172 2.99975 45 2.99975H52C52.828 2.99975 53.5 3.67175 53.5 4.49975V15.3507ZM46.496 48.9996H39.496V41.9996H46.496V48.9996ZM47.996 51.9996H37.996C37.168 51.9996 36.496 51.3276 36.496 50.4996V40.4996C36.496 39.6716 37.168 38.9996 37.996 38.9996H47.996C48.824 38.9996 49.496 39.6716 49.496 40.4996V50.4996C49.496 51.3276 48.824 51.9996 47.996 51.9996Z" fill="black"/>
</svg>

<svg width="64" height="64" viewBox="0 0 64 64" fill="none" xmlns="http://www.w3.org/2000/svg"><path fill-rule="evenodd" clip-rule="evenodd" d="M32.884 10.289 61 30.829v-6.284L31.999 3.357 3 24.545v6.284l28.114-20.54a1.503 1.503 0 0 1 1.77 0ZM29.5 60.999h26V30.527l-23.501-17.17L8.5 30.527V61h5V40.5A1.5 1.5 0 0 1 15 39h13a1.5 1.5 0 0 1 1.5 1.5V61ZM25 49h1.5v-7h-10v19h10v-9H25a1.5 1.5 0 0 1 0-3ZM50.5 6h-4v4.237l4 2.923V6Zm3 9.352 9.885 7.22c.386.283.615.734.615 1.212v10c0 .565-.317 1.082-.82 1.338a1.504 1.504 0 0 1-1.565-.127L58.5 32.719v29.78A1.5 1.5 0 0 1 57 64H7a1.5 1.5 0 0 1-1.5-1.5V32.719l-3.115 2.276a1.503 1.503 0 0 1-1.565.127A1.501 1.501 0 0 1 0 33.783v-10c0-.478.229-.93.615-1.211L31.114.289a1.5 1.5 0 0 1 1.77 0L43.5 8.045V4.5A1.5 1.5 0 0 1 45 3h7a1.5 1.5 0 0 1 1.5 1.5v10.85ZM46.496 49h-7v-7h7v7Zm1.5 3h-10a1.5 1.5 0 0 1-1.5-1.5v-10a1.5 1.5 0 0 1 1.5-1.5h10a1.5 1.5 0 0 1 1.5 1.5v10a1.5 1.5 0 0 1-1.5 1.5Z" fill="currentColor"/></svg>
